symbols/web/cancel_presentation/materialsymbolsoutlined/cancel_presentation_wght100_40px.svg

<svg xmlns="http://www.w3.org/2000/svg" height="40" width="40"><path d="m15.542 25.208 4.458-4.5 4.458 4.5.75-.75-4.5-4.458 4.5-4.458-.75-.75-4.458 4.5-4.458-4.5-.75.75 4.5 4.458-4.5 4.458Zm-7.709 5.959q-1 0-1.666-.667-.667-.667-.667-1.667V11.167q0-1 .667-1.667.666-.667 1.666-.667h24.334q1 0 1.666.667.667.667.667 1.667v17.666q0 1-.667 1.667-.666.667-1.666.667Zm0-1h24.334q.5 0 .916-.417.417-.417.417-.917V11.167q0-.5-.417-.917-.416-.417-.916-.417H7.833q-.5 0-.916.417-.417.417-.417.917v17.666q0 .5.417.917.416.417.916.417Zm-1.333 0V9.833 30.167Z"/></svg>

<svg xmlns="http://www.w3.org/2000/svg" height="40" width="40"><path d="M15.542 25.208 20 20.708 24.458 25.208 25.208 24.458 20.708 20 25.208 15.542 24.458 14.792 20 19.292 15.542 14.792 14.792 15.542 19.292 20 14.792 24.458ZM7.833 31.167Q6.833 31.167 6.167 30.5Q5.5 29.833 5.5 28.833V11.167Q5.5 10.167 6.167 9.5Q6.833 8.833 7.833 8.833H32.167Q33.167 8.833 33.833 9.5Q34.5 10.167 34.5 11.167V28.833Q34.5 29.833 33.833 30.5Q33.167 31.167 32.167 31.167ZM6.5 30.167Q6.5 30.167 6.5 29.792Q6.5 29.417 6.5 28.833V11.167Q6.5 10.583 6.5 10.208Q6.5 9.833 6.5 9.833Q6.5 9.833 6.5 10.208Q6.5 10.583 6.5 11.167V28.833Q6.5 29.417 6.5 29.792Q6.5 30.167 6.5 30.167ZM7.833 30.167H32.167Q32.667 30.167 33.083 29.75Q33.5 29.333 33.5 28.833V11.167Q33.5 10.667 33.083 10.25Q32.667 9.833 32.167 9.833H7.833Q7.333 9.833 6.917 10.25Q6.5 10.667 6.5 11.167V28.833Q6.5 29.333 6.917 29.75Q7.333 30.167 7.833 30.167Z"/></svg>
